data/styles/clear/style-night/symbols/chemist-m.svg

<svg height="24" viewBox="0 0 24 24" width="24"><g fill="none" fill-rule="evenodd"><circle cx="12" cy="12" fill="#fff" opacity=".4" r="12"/><circle cx="12" cy="12" fill="#4e3552" r="11"/><path d="m10.2349827 18h3.5291523c.7799426 0 1.4116609-.7177451 1.4116609-1.6038996h-6.35247409c0 .8861545.63260055 1.6038996 1.41166089 1.6038996zm-4.2349827-7.217548c0 1.8709488 1.04551136 3.7483132 2.62568929 4.7307017h6.74773911c1.5792957-.9831904 2.6265716-2.8597529 2.6265716-4.7307017zm11.2888758-3.37300082c.3785016-.34483841.4076171-.87733306.0617602-1.19009348-.3440924-.31436431-.9299316-.28709802-1.3101978.05774039l-4.542019 3.70180019h3.5176826z" fill="#fff" opacity=".6"/></g></svg>

<svg width="24" height="24" viewBox="0 0 24 24">
  <g fill="none" fill-rule="evenodd">
    <circle cx="12" cy="12" r="12" fill="#FFF" opacity=".4"/>
    <circle cx="12" cy="12" r="11" fill="#4E3551"/>
    <path fill="#FFF" d="M10.2349827,18 L13.764135,18 C14.5440776,18 15.1757959,17.2822549 15.1757959,16.3961004 L8.82332181,16.3961004 C8.82332181,17.2822549 9.45592236,18 10.2349827,18 L10.2349827,18 Z M6,10.782452 C6,12.6534008 7.04551136,14.5307652 8.62568929,15.5131537 L15.3734284,15.5131537 C16.9527241,14.5299633 18,12.6534008 18,10.782452 L6,10.782452 L6,10.782452 Z M17.2888758,7.40945118 C17.6673774,7.06461277 17.6964929,6.53211812 17.350636,6.2193577 C17.0065436,5.90499339 16.4207044,5.93225968 16.0404382,6.27709809 L11.4984192,9.97889828 L15.0161018,9.97889828 L17.2888758,7.40945118 L17.2888758,7.40945118 Z" opacity=".6"/>
  </g>
</svg>
